symbolic/32x32/apps/electrum.svg

<svg xmlns="http://www.w3.org/2000/svg" width="32" height="32" version="1.1">
 <circle style="opacity:0.2" cx="16" cy="17" r="14"/>
 <circle style="fill:#e4e4e4" cx="16" cy="16" r="14"/>
 <ellipse style="fill:none;stroke:#1488c4;stroke-width:1.03098261" cx="16" cy="16" rx="12.5" ry="7.5"/>
 <ellipse style="fill:none;stroke:#1488c4;stroke-width:1.03098261" cx="21.856" cy="-5.856" rx="12.5" ry="7.5" transform="rotate(60)"/>
 <ellipse style="fill:none;stroke:#1488c4;stroke-width:1.03098261" cx="5.856" cy="21.856" rx="12.5" ry="7.5" transform="matrix(-0.5,0.8660254,0.8660254,0.5,0,0)"/>
 <path style="fill:#ffffff;opacity:0.2" d="M 16 2 A 14 14 0 0 0 2 16 A 14 14 0 0 0 2.0214844 16.585938 A 14 14 0 0 1 16 3 A 14 14 0 0 1 29.978516 16.414062 A 14 14 0 0 0 30 16 A 14 14 0 0 0 16 2 z"/>
 <path style="fill:#1488c4" d="m 14,10 v 2 c -0.245847,0.01 -0.698089,0 -0.933593,0 H 12 v 1 c 0,0 0.359418,-0.015 0.345703,0 C 12.805832,12.993 12.95236,13.326067 13,13.548828 V 18.5 C 12.98236,18.640776 12.9974,18.99 12.675782,19 12.690632,19.013 12,19 12,19 v 1 h 1.126953 C 13.402055,19.99 13.734241,20 14,20 v 2 l 1,-0.01758 V 20 h 0.984375 l 0.03125,2 h 1 l -0.03125,-2 C 18.892187,19.861524 20,19.633628 20,17.5 20,16 18.999089,15.500955 17.816203,15.5 18.566521,15.44318 18.999459,15 18.999797,13.75 19,13 18.566521,12 17.999797,12 H 17 v -2 h -1 v 2 c -0.298624,-5e-6 -0.69683,-0.011 -1,0 v -2 z m 1,3 c 1.410185,0 2.000138,1.5e-5 2,1 1.38e-4,1.000066 -0.730627,1 -2,1 z m 0,3 c 2,7.5e-5 3.000208,2.3e-5 3,1.5 2.08e-4,1.500099 -1,1.5 -3,1.5 z"/>
</svg>

<svg xmlns="http://www.w3.org/2000/svg" width="32" height="32"><circle style="opacity:.2" cx="16" cy="17" r="14"/><circle style="fill:#e4e4e4" cx="16" cy="16" r="14"/><ellipse style="fill:none;stroke:#1488c4;stroke-width:1.03098261" cx="16" cy="16" rx="12.5" ry="7.5"/><ellipse style="fill:none;stroke:#1488c4;stroke-width:1.03098261" cx="21.856" cy="-5.856" rx="12.5" ry="7.5" transform="rotate(60)"/><ellipse style="fill:none;stroke:#1488c4;stroke-width:1.03098261" cx="5.856" cy="21.856" rx="12.5" ry="7.5" transform="scale(-1 1) rotate(60)"/><path style="fill:#fff;opacity:.2" d="M16 2A14 14 0 0 0 2 16a14 14 0 0 0 .021.586A14 14 0 0 1 16 3a14 14 0 0 1 13.979 13.414A14 14 0 0 0 30 16 14 14 0 0 0 16 2z"/><path style="fill:#1488c4" d="M14 10v2c-.246.01-.698 0-.934 0H12v1s.36-.015.346 0c.46-.007.606.326.654.549V18.5c-.018.14-.003.49-.324.5.015.013-.676 0-.676 0v1h1.127c.275-.01.607 0 .873 0v2l1-.018V20h.984l.032 2h1l-.032-2c1.908-.138 3.016-.366 3.016-2.5 0-1.5-1-1.999-2.184-2 .75-.057 1.183-.5 1.184-1.75C19 13 18.567 12 18 12h-1v-2h-1v2c-.299 0-.697-.011-1 0v-2zm1 3c1.41 0 2 0 2 1s-.73 1-2 1zm0 3c2 0 3 0 3 1.5S17 19 15 19z"/></svg>
